public/img/assets/icons/weather-conditions/small/rain-night.svg

<svg width="24" height="24" viewBox="0 0 24 24" fill="none" xmlns="http://www.w3.org/2000/svg">
<path d="M12 4C15.169 4 16.966 6.098 17.227 8.63H17.307C17.7914 8.62921 18.2713 8.7239 18.7191 8.90865C19.1669 9.09339 19.574 9.36458 19.9169 9.70671C20.2599 10.0488 20.5321 10.4552 20.7179 10.9026C20.9037 11.35 20.9996 11.8296 21 12.314C20.9995 12.7984 20.9035 13.2779 20.7176 13.7251C20.5317 14.1724 20.2595 14.5786 19.9166 14.9206C19.5736 15.2627 19.1666 15.5338 18.7189 15.7184C18.2711 15.9031 17.7914 15.9978 17.307 15.997H16.725L15.142 18.633C15.0469 18.7974 14.893 18.9197 14.7112 18.975C14.5295 19.0304 14.3336 19.0147 14.163 18.9312C13.9923 18.8476 13.8598 18.7025 13.792 18.525C13.7243 18.3475 13.7264 18.151 13.798 17.975L13.843 17.883L14.993 15.996H12.857L11.274 18.633C11.1789 18.7974 11.025 18.9197 10.8432 18.975C10.6615 19.0304 10.4656 19.0147 10.295 18.9312C10.1243 18.8476 9.99179 18.7025 9.92405 18.525C9.85631 18.3475 9.85844 18.151 9.93 17.975L9.975 17.883L11.125 15.996H8.988L7.406 18.633C7.31091 18.7974 7.15696 18.9197 6.97524 18.975C6.79352 19.0304 6.59757 19.0147 6.42696 18.9312C6.25635 18.8476 6.12379 18.7025 6.05605 18.525C5.98831 18.3475 5.99044 18.151 6.062 17.975L6.107 17.883L7.256 15.996H6.693C6.20873 15.9968 5.72905 15.9022 5.28136 15.7175C4.83366 15.5329 4.42673 15.2619 4.08379 14.92C3.74085 14.5781 3.46862 14.1719 3.28266 13.7248C3.09671 13.2777 3.00066 12.7983 3 12.314C3.00066 11.8298 3.09667 11.3505 3.28257 10.9034C3.46846 10.4563 3.7406 10.0503 4.08343 9.70836C4.42627 9.36645 4.83309 9.09542 5.28066 8.91074C5.72824 8.72606 6.20782 8.63134 6.692 8.632H6.772C7.036 6.08 8.832 4 12 4Z" fill="#D580FF"/>
</svg>

<svg width="24" height="24" fill="none" xmlns="http://www.w3.org/2000/svg"><path d="M12 4c3.169 0 4.966 2.098 5.227 4.63h.08A3.687 3.687 0 0 1 21 12.314a3.686 3.686 0 0 1-3.693 3.683h-.582l-1.583 2.636a.75.75 0 0 1-1.344-.658l.045-.092 1.15-1.887h-2.136l-1.583 2.637a.75.75 0 0 1-1.344-.658l.045-.092 1.15-1.887H8.988l-1.582 2.637a.75.75 0 0 1-1.344-.658l.045-.092 1.149-1.887h-.563a3.685 3.685 0 0 1-3.41-5.093 3.687 3.687 0 0 1 3.409-2.271h.08C7.036 6.08 8.832 4 12 4Z" fill="#D580FF"/></svg>
